!!!COM: Scriabin, Alexander
!!!OTL: Mazurka
!!!OPR: 10 Mazurkas for piano
!!!OPS: 3
!!!ONM: 10
!!!ODT: 1888–1889
!!!AGN: Mazurka
**kern	**kern
*staff2	*staff1
*clefF4	*clefG2
*k[b-e-a-d-g-c-]	*k[b-e-a-d-g-c-]
*e-:	*e-:
*M3/4	*M3/4
=1	=1
*^	*
2.c-	4rEE	8r
.	.	8ee-
.	4A- 4f	12ee-L
.	.	12ff
.	.	12ee-J
.	4A-- 4f	8r
.	.	8cc-
=2	=2	=2
2.c-	4rEE	8ee-L
.	.	16r
.	.	16b-Jk
.	4G- 4e-	4ee-
.	4F 4e-	4a-
=3	=3	=3
2.c-	4rEE	8r
.	.	8cc-
.	4F 4dn	4.b-
.	4F 4d	.
.	.	8a-
=4	=4	=4
2.c-	4rEE	8r
.	.	8cc-
.	4F-X 4dn	4.b-
.	4F- 4d	.
.	.	8a-
=5	=5	=5
2.c-	4rEE	8r
.	.	8a-
.	4E- 4e-	12a-L
.	.	12b-
.	.	12a-J
.	4D- 4f-X	8r
.	.	8f-X
=6	=6	=6
2.c-	4rEE	8a-L
.	.	16r
.	.	16f-XJk
.	4C- 4A-	4a-
.	4C- 4A-	4e-
=7	=7	=7
*	*	*^
2.c-	4rEE	8raa	4rc
.	.	8cc-	.
.	4BB- 4Fn	4.b-	4dn
.	4BB- 4F	.	4d
.	.	8a-	.
*	*	*v	*v
*clefG2	*	*
=8	=8	=8
2.ryy	4c- 4a- 4ddn	8r
.	.	8aa-
.	4r	4.gg-
.	4r	.
.	.	8ff
*v	*v	*
*clefF4	*
=9	=9
*	*^
4EE-	8raa	4rc
.	8ff-X	.
4E- 4d- 4f-X	12ff-L	4gn
.	12gg-X	.
.	12ff-J	.
4E- 4d- 4f-	8raa	4g
.	8b-	.
*	*v	*v
=10	=10
*^	*
4AA-	4rEE	8dd-L
.	.	16r
.	.	16b--Jk
4An	2F-X 2f-X	4dd-
4B-	.	4a-X
*v	*v	*
=11	=11
*	*^
4EE-	8gnL	2.g
.	8ff-X	.
4E- 4d- 4f-X	8ee-	.
.	8ee--	.
4r	8dd-	.
.	8b-XJ	.
*	*v	*v
=12	=12
*^	*
4AA-	4rEE	8cc-L
.	.	8dd-
4Dn 4f-X	2c-	8cc-
.	.	8b-
4E- 4e-	.	8a-
.	.	8e-J
*v	*v	*
=13	=13
*	*^
4BBB-	8dnL	4rc
.	8cc-	.
2BB- 2A-	8b-	2d
.	8a-	.
.	8g-	.
.	8fnJ	.
*	*v	*v
=14	=14
4C- 4G-	8e-L
.	8g-J
4An 4e-	8an
.	4ff
4r	.
.	8ee-
=15	=15
4BB- 4G- 4e-	8ddnL
.	8dd-X
4G- 4e- 4g-	8ccn
.	8cc-X
4r	8b-
.	8g-J
=16	=16
4BB- 4A- 4dn	8g-L
.	8fJ
4r	8A-L
.	8Gn
4r	8A-
.	8B-J
=17	=17
*^	*
2.c-	4rEE	8r
.	.	8ee-
.	4A- 4f	12ee-L
.	.	12ff
.	.	12ee-J
.	4A-- 4f	8r
.	.	8cc-
=18	=18	=18
2.c-	4rEE	8ee-L
.	.	16r
.	.	16b-Jk
.	4G- 4e-	4ee-
.	4F 4e-	4a-
=19	=19	=19
2.c-	4rEE	8r
.	.	8cc-
.	4F 4dn	4.b-
.	4F 4d	.
.	.	8a-
=20	=20	=20
2.c-	4rEE	8r
.	.	8cc-
.	4F-X 4dn	4.b-
.	4F- 4d	.
.	.	8a-
=21	=21	=21
2.c-	4rEE	8r
.	.	8a-
.	4E- 4e-	12a-L
.	.	12b-
.	.	12a-J
.	4D- 4f-X	8r
.	.	8f-X
=22	=22	=22
2.c-	4rEE	8a-L
.	.	16r
.	.	16f-XJk
.	4C- 4A-	4a-
.	4C- 4A-	4e-
=23	=23	=23
2.c-	4rEE	8r
.	.	8cc-
.	4D- 4fn	4.b-
.	4D- 4f	.
.	.	8a-
*clefG2	*	*
=24	=24	=24
2.ryy	4d- 4cc- 4ff	8r
.	.	8ccc-
.	4r	4.bb-
.	4r	.
.	.	8aa-
*v	*v	*
=25	=25
*clefF4	*
*	*^
4GG-	8rb	4rc
.	8aa--	.
4G- 4f-X 4a--	12aa--L	4b-
.	12bb--	.
.	12aa--J	.
4G- 4f- 4a--	8raa	4b-
.	8dd-	.
*	*v	*v
=26	=26
*^	*
4C-	4rEE	8ff-XL
.	.	16r
.	.	16dd--Jk
4cn	2A-- 2a--	4ff-
4d-	.	4cc-X
*v	*v	*
=27	=27
*	*^
4GG-	8b-L	4rc
.	8aa--	.
4G- 4f-X 4a--	8gg-	4b-
.	8gg--	.
4r	8ff-X	4rc
.	8dd-XJ	.
*	*v	*v
=28	=28
*^	*
4rc	4C-	8ee-L
.	.	8dd-
[4e-	[4G-	8cc-
.	.	8b-
4A-X 4e-]	8G-L]	8a-X
.	8FnJ	8e-J
*v	*v	*
=29	=29
*	*^
4BBB-	8dnL	4rc
.	8cc-	.
2BB- 2A-	8b-	2d
.	8a-	.
.	8g-	.
.	8fJ	.
*	*v	*v
=30	=30
4C- 4G-	8e-L
.	8g-J
4An 4e-	8an
.	4ff
4r	.
.	8ee-
=31	=31
4BB- 4G- 4e-	8ddnL
.	8dd-X
4G- 4e- 4g-	8ccn
.	8cc-X
4r	8b-
.	8g-J
=32	=32
*	*^
[4BB-	8g-L	4A- 4dn
.	8fJ	.
2EE- 2BB-]	2G- 2e-	4rc
.	.	4rc
=33	=33	=33
2GG-	8raa	4rc
.	8g-	.
.	12g-L	4B-
.	12a-	.
.	12g-J	.
4D-	8raa	4rc
.	8g-	.
=34	=34	=34
4E--	8cc-L	4c-
.	16r	.
.	[16fJk	.
4.B-	4f] 4cc-	4c-
.	4f	4rc
8A-	.	.
*	*v	*v
=35	=35
8r	4c- 4e- 4g-
8A-	.
12A-L	4c- 4e- 4a-
12B-	.
12A-J	.
8r	4c- 4e- 4b-
8G-	.
=36	=36
8c-L	4c- 4e- 4b- 4dd-
16r	.
16FJk	.
4c-	4c- 4e- 4a- 4cc-
4r	4c- 4e- 4b-
=37	=37
*^	*
2.ryy	8BB-L	4c- 4e- 4b-
.	8G-J	.
.	4F	4c- 4e- 4a-
.	4BB-	4c- 4dn 4b-
=38	=38	=38
2.ryy	4.E-	4A- 4c- 4a-
.	.	4G- 4c- 4g-
.	8EE-	.
.	8DDnL	4G- 4c-
.	8EE-J	.
=39	=39	=39
4rc	2FF-X	4E- 4A- 4e-
4rc	.	4D- 4A- 4d-X
[4D-X	4FFn	4A- 4c- 4d- 4a-
=40	=40	=40
8D-L]	2.GG-	4A- 4d- 4a-
8E-J	.	.
[4F-X	.	4G- 4B- 4g-
4F-] 4G- 4d-	.	4f-X 4b- 4gg-
*v	*v	*
=41	=41
*	*^
2C-	8raa	4rc
.	8cc-	.
.	12cc-L	4e-
.	12dd-	.
.	12cc-J	.
4G-	8raa	4rc
.	8cc-	.
=42	=42	=42
4A--	8ff-XL	4f-X
.	16r	.
.	[16b-Jk	.
4.e-	4b-] 4ff-	4f-
.	4b-	4rc
8d-	.	.
*	*v	*v
=43	=43
8r	4f-X 4a- 4cc-
8d-	.
12d-L	4f- 4a- 4dd-
12e-	.
12d-J	.
8r	4f- 4a- 4ee-
8c-	.
=44	=44
8f-XL	4f-X 4a- 4ee- 4gg-
16r	.
16B-Jk	.
4f-	4f- 4a- 4dd- 4ff-X
4r	4f- 4a- 4cc- 4ee-
=45	=45
8E-L	4f-X 4a- 4ee-
8c-J	.
8B-	4f- 4a- 4dd-
8r	.
8r	4f- 4gn 4ee-
8E-	.
=46	=46
4.A-	4d- 4f-X 4dd-
.	4c- 4f- 4cc-
8A-	.
8B-L	4c- 4f- 4a-
8A-J	.
=47	=47
*^	*^
2.A-	8rEE	4g-	4rc
.	8BB-	.	.
.	12BB-L	4g-	2c- 2dn
.	12C-	.	.
.	12BB-J	.	.
.	4rEE	4cc-	.
=48	=48	=48	=48
2.G-	8rEE	4cc-	2.c- 2.e-
.	8BB-	.	.
.	12BB-L	8g-L	.
.	12C-	.	.
.	.	8a-J	.
.	12BB-J	.	.
.	4rEE	4b-	.
=49	=49	=49	=49
2.A-	8rEE	4g-	2.c- 2.dn
.	8BB-	.	.
.	12BB-L	4en	.
.	12C-	.	.
.	12BB-J	.	.
.	4rEE	4f	.
=50	=50	=50	=50
2.G-	8rEE	4g-	2.c- 2.e-X
.	8BB-	.	.
.	12BB-L	4cc-	.
.	12C-	.	.
.	12BB-J	.	.
.	4rEE	4b-	.
=51	=51	=51	=51
4BBB-	4rEE	8raa	4rc
.	.	8a-	.
4F	2BB-	12a-L	2c- 2dn
.	.	12b-	.
.	.	12a-J	.
8G-L	.	8g-L	.
8A-J	.	8fJ	.
=52	=52	=52	=52
8.A-L	2BB-	8.fL	2c-
16G-Jk	.	16e-Jk	.
4F	.	4dn	.
4rc	4rEE	4cc- 4ccc-	4rc
=53	=53	=53	=53
4BBB-	4rEE	8raa	4rc
.	.	8a-	.
4F	2BB-	12a-L	2c- 2dn
.	.	12b-	.
.	.	12a-J	.
8G-L	.	8g-L	.
8A-J	.	8fJ	.
=54	=54	=54	=54
8.A-L	2BB-	8.fL	2c-
16G-Jk	.	16e-Jk	.
4F	.	4dn	.
4rc	4rEE	4cc- 4ccc-	4rc
=55	=55	=55	=55
4BBB-	4rEE	8raa	4rc
.	.	8dd-	.
4B-	2BB- 2F-X	12dd-L	2f-X 2gn
.	.	12ee-	.
.	.	12dd-J	.
8c-L	.	8cc-L	.
8d-J	.	8b-J	.
=56	=56	=56	=56
8.d-L	2BB- 2F-X	8.b-L	2f-X
16c-Jk	.	16a-Jk	.
4B-	.	4gn	.
4BBBB- 4BBB-	4rEE	4raa	4rc
*v	*v	*	*
=57	=57	=57
4En 4c- 4en	8ff-XL 8fff-X	4aa-
.	8ee-J 8eee-	.
4Fn 4c- 4fn	4ddn 4dddn	4aa-
4BBBB- 4BBB-	4raa	4rc
=58	=58	=58
4En 4c-	8f-XL 8ff-X	4a-
.	8e-J 8ee-	.
4F 4c-	4dn 4ddn	4a-
4BBBB- 4BBB-	4raa	4rc
=59	=59	=59
4EEn 4C-	8F-XL 8f-X	4A-
.	8E-J 8e-	.
4FF 4C-	4Dn 4dn	4A-
4BBBB- 4BBB-	4raa	4rc
*	*v	*v
=60	=60
2.c-	2.r
=61	=61
2.c-	2.r
=62	=62
2.c-	2.r
=63	=63
*^	*
2.c-	4rEE	8r
.	.	8ee-
.	4A- 4f	12ee-L
.	.	12ff
.	.	12ee-J
.	4A-- 4f	8r
.	.	8cc-
=64	=64	=64
2.c-	4rEE	8ee-L
.	.	16r
.	.	16b-Jk
.	4G- 4e-	4ee-
.	4F 4e-	4a-
=65	=65	=65
2.c-	4rEE	8r
.	.	8cc-
.	4F 4dn	4.b-
.	4F 4d	.
.	.	8a-
=66	=66	=66
2.c-	4rEE	8r
.	.	8cc-
.	4F-X 4dn	4.b-
.	4F- 4d	.
.	.	8a-
=67	=67	=67
2.c-	4rEE	8r
.	.	8a-
.	4E- 4e-	12a-L
.	.	12b-
.	.	12a-J
.	4D- 4f-X	8r
.	.	8f-X
=68	=68	=68
2.c-	4rEE	8a-L
.	.	16r
.	.	16f-XJk
.	4C- 4A-	4a-
.	4C- 4A-	4e-
=69	=69	=69
*	*	*^
2.c-	4rEE	8raa	4rc
.	.	8cc-	.
.	4BB- 4Fn	4.b-	4dn
.	4BB- 4F	.	4d
.	.	8a-	.
*	*	*v	*v
=70	=70	=70
*clefG2	*	*
2.ryy	4c- 4a- 4ddn	8r
.	.	8aa-
.	4r	4.gg-
.	4r	.
.	.	8ff
*v	*v	*
*clefF4	*
=71	=71
*	*^
4EE-	8raa	4rc
.	8ff-X	.
4E- 4d-X 4f-X	12ff-L	4gn
.	12gg-X	.
.	12ff-J	.
4E- 4d- 4f-	8raa	4g
.	8b-	.
*	*v	*v
=72	=72
*^	*
4AA-	4rEE	8dd-L
.	.	16r
.	.	16b--Jk
4An	2F-X 2f-X	4dd-
4B-	.	4a-X
*v	*v	*
=73	=73
*	*^
4EE-	8gnL	2.g
.	8ff-X	.
4E- 4d- 4f-X	8ee-	.
.	8ee--	.
4r	8dd-	.
.	8b-XJ	.
*	*v	*v
=74	=74
*^	*
4AA-	4rEE	8cc-L
.	.	8dd-
4Dn 4f-X	2c-	8cc-
.	.	8b-
4E- 4e-	.	8a-
.	.	8e-J
*v	*v	*
=75	=75
*	*^
4BBB-	8dnL	4rc
.	8cc-	.
2BB- 2A-	8b-	2d
.	8a-	.
.	8g-	.
.	8fnJ	.
*	*v	*v
=76	=76
4C- 4G-	8e-L
.	8g-J
4An 4e-	8an
.	4ff
4r	.
.	8ee-
=77	=77
4BB- 4G- 4e-	8ddnL
.	8dd-X
4G- 4e- 4g-	8ccn
.	8cc-X
4r	8b-
.	8g-J
=78	=78
*	*^
[4BB-	8g-L	4A- 4dn
.	8fJ	.
2EE- 2BB-]	2G- 2e-	4rc
.	.	4rc
*	*v	*v
=79||	=79||
*	*clefF4
*k[f#c#g#d#a#]	*k[f#c#g#d#a#]
4BBB 4FF#	4D# 4B 4d#
2FFF# 2FF#	2C##X 2B 2c##X
=80	=80
4BBB 4FF#	4D# 4B 4d#
*	*clefG2
2FF# 2D#	2A# 2f#
=81	=81
*^	*^
*	*^	*	*
2.D#	[2.GG#	4r	4B	[2.B
.	.	4r	8c#L	.
.	.	.	8d#J	.
.	.	[4CC#\	8.eL	.
.	.	.	16g#Jk	.
=82	=82	=82	=82	=82
8C#L	4GG#]	4CC#/]	4g#	4B]
8D#J	.	.	.	.
2E	4rEE	2FF#/	4A# 4f#	4rc
.	4rEE	.	4c#	4rc
*v	*v	*v	*	*
*	*v	*v
*	*clefF4
=83	=83
4CC# 4GG#	4E 4c# 4e
2GGG# 2GG#	2D# 2B#X 2d#
=84	=84
4CC# 4GG#	4E 4c# 4e
*	*clefG2
2GG# 2E	2B#X 2g#
=85	=85
*	*^
2C# 2E	4c#	2c#
.	8d#L	.
.	8eJ	.
[4FF# [4E	8.g#L	4Bn
.	16f#Jk	.
*	*v	*v
=86	=86
4FF#] 4E]	4A# 4f#
4BB 4D#	4B
4FF#	4F# 4A# 4c#
*	*clefF4
=87	=87
4BBB 4FF#	4D# 4B 4d#
2FFF# 2FF#	2C##X 2B 2c##X
=88	=88
4BBB 4FF#	4D# 4B 4d#
*	*clefG2
2FF# 2D#	2A# 2f#
=89	=89
*^	*^
*	*^	*	*
2.D#	[2.GG#	4r	4B	[2.B
.	.	4r	8c#L	.
.	.	.	8d#J	.
.	.	[4CC#\	8.eL	.
.	.	.	16g#Jk	.
=90	=90	=90	=90	=90
8C#L	4GG#]	4CC#/]	4g#	4B]
8D#J	.	.	.	.
2E	4rEE	2FF#/	4A# 4f#	4rc
.	4rEE	.	4c#	4rc
*v	*v	*v	*	*
*	*v	*v
=91	=91
*	*clefF4
4CC# 4GG#	4E 4c# 4e
2GGG# 2GG#	2D# 2B#X 2d#
=92	=92
4CC# 4GG#	4E 4c# 4e
*	*clefG2
2GG# 2E	2B#X 2g#
=93	=93
*	*^
2C# 2E	4c#	2c#
.	8d#L	.
.	8eJ	.
[4FF# [4E	8.g#L	4Bn
.	16f#Jk	.
*	*v	*v
=94	=94
4FF#] 4E]	4A# 4f#
4BB 4D#	4B
4AA#	4r
=95	=95
4GGG# 4GG#	4B 4g# 4b
.	[8qB/ 8qa#
2DD# 2D#	2B] 2g# 2b
=96	=96
*	*^
4DD##X 4D##X	4.dd#	8dd#L
.	.	8g#
4EE#X 4E#X	.	8d#
.	4.cc##X	8cc##
4AA# 4A#	.	8g#
.	.	8c##XJ
*	*v	*v
=97	=97
4DD#X 4D#X	4f# 4dd# 4ff#
.	[8qf#/ 8qee#X
2AA# 2A#	2f#] 2dd# 2ff#
=98	=98
*	*^
4AA##X 4A##X	4.aa#	8aa#XL
.	.	8dd#
4BB#X 4B#X	.	8a#
.	4.gg##X	8gg##
4E#X 4e#X	.	8dd#
.	.	8g##XJ
=99	=99	=99
2.Fn 2.Bn 2.an	4.aan	8aaL
.	.	8dd#
.	.	8an
.	4.bb	8bb
.	.	8dd#
.	.	8aJ
=100	=100	=100
2.E 2.B 2.g#	4.gg#	8gg#L
.	.	8ee
.	.	8g#
.	4.gg#	8gg#
.	.	8ee
.	.	8g#J
=101	=101	=101
2.E#X	4.ggn	8ggL
.	.	8b
.	.	8dn
.	4.gg	8gg
.	.	8b
.	.	8dJ
=102	=102	=102
2.F#	4.ff#	8ff#L
.	.	8a#
.	.	8c#
.	4.f#	8f#
.	.	8A#
.	.	8F#J
*	*v	*v
=103	=103
*	*clefF4
4BBB 4FF#	4D# 4B 4d#
2FFF# 2FF#	2C##X 2B 2c##X
=104	=104
4BBB 4FF#	4D# 4B 4d#
*	*clefG2
2FF# [2D#	2A# 2f#
=105	=105
*^	*^
*	*^	*	*
2.D#]	2.GG#	4r	4B	[2.B
.	.	4r	8c#L	.
.	.	.	8d#J	.
.	.	4CC#\	8.eL	.
.	.	.	16g#Jk	.
=106	=106	=106	=106	=106
8C#L	4GG#	4CC#/	4g#	4B]
8D#J	.	.	.	.
2E	4rEE	2FF#/	4A# 4f#	4rc
.	4rEE	.	4c#	4rc
*v	*v	*v	*	*
*	*v	*v
*	*clefF4
=107	=107
4CC# 4GG#	4E 4c# 4e
2GGG# 2GG#	2D# 2B#X 2d#
=108	=108
4CC# 4GG#	4E 4c# 4e
*	*clefG2
2GG# 2E	2B#X 2g#
=109	=109
*	*^
2C# 2E	4c#	2c#
.	8d#L	.
.	8eJ	.
4FF# 4E	8.g#L	4Bn
.	16f#Jk	.
*	*v	*v
=110	=110
4FF# 4E	4A# 4f#
4BB 4D#	4B
4AA#	4r
=111	=111
4GGG# 4GG#	4B 4g# 4b
.	[8qB/ 8qa#
2DD# 2D#	2B] 2g# 2b
=112	=112
*	*^
4DD##X 4D##X	4.dd#	8dd#L
.	.	8g#
4EE#X 4E#X	.	8d#
.	4.cc##X	8cc##
4AA# 4A#	.	8g#
.	.	8c##XJ
*	*v	*v
=113	=113
4DD#X 4D#X	4f# 4dd# 4ff#
.	[8qf#/ 8qee#X
2AA# 2A#	2f#] 2dd# 2ff#
=114	=114
*	*^
4AA##X 4A##X	4.aa#	8aa#XL
.	.	8dd#
4BB#X 4B#X	.	8a#
.	4.gg##X	8gg##
4E#X 4e#X	.	8dd#
.	.	8g##XJ
=115	=115	=115
2.Fn 2.Bn 2.an	4.aan	8aaL
.	.	8dd#
.	.	8an
.	4.bb	8bb
.	.	8dd#
.	.	8aJ
=116	=116	=116
2.E 2.B 2.g#	4.gg#	8gg#L
.	.	8ee
.	.	8g#
.	4.gg#	8gg#
.	.	8ee
.	.	8g#J
=117	=117	=117
2.E#X	4.ggn	8ggL
.	.	8b
.	.	8dn
.	4.gg	8gg
.	.	8b
.	.	8dJ
=118	=118	=118
2.F#	4.ff#	8ff#L
.	.	8a#
.	.	8c#
.	4.f#	8f#
.	.	8A#
.	.	8F#J
*	*v	*v
*	*clefF4
=119	=119
4BBB 4FF#	4D# 4B 4d#
2FFF# 2FF#	2C##X 2B 2c##X
=120	=120
4BBB 4FF#	4D# 4B 4d#
*	*clefG2
2FF# [2D#	2A# 2f#
=121	=121
*^	*^
*	*^	*	*
2.D#]	2.GG#	4r	4B	[2.B
.	.	4r	8c#L	.
.	.	.	8d#J	.
.	.	4CC#\	8.eL	.
.	.	.	16g#Jk	.
=122	=122	=122	=122	=122
8C#L	4GG#	4CC#/	4g#	4B]
8D#J	.	.	.	.
2E	4rEE	2FF#/	4A# 4f#	4rc
.	4rEE	.	4c#	4rc
*v	*v	*v	*	*
*	*v	*v
*	*clefF4
=123	=123
4CC# 4GG#	4E 4c# 4e
2GGG# 2GG#	2D# 2B#X 2d#
=124	=124
4CC# 4GG#	4E 4c# 4e
*	*clefG2
2GG# 2E	2B#X [2g#
=125	=125
*^	*^
*	*	*	*^
4E	2.AA#	4g#]	4rc	2.c#\
[4D#X	.	8f#L	2f#	.
.	.	8g#J	.	.
4D#] 4c#	.	8.a#L	.	.
.	.	16cc#Jk	.	.
*	*	*	*v	*v
=126	=126	=126	=126
4rc	4rEE	4cc#	4rc
[2D#X	2AA#	4b	2B
.	.	[4f#	.
=127	=127	=127	=127
*	*	*	*^
4D#]	2.GG#	4f#]	4rc	2.B\
[4C#	.	8eL	2e	.
.	.	8f#J	.	.
4C#] 4B	.	8.g#L	.	.
.	.	16bJk	.	.
*	*	*	*v	*v
=128	=128	=128	=128
4rc	4rEE	4b	4rc
[2C#	2GG#	4an	2An
.	.	[4e	.
=129	=129	=129	=129
*	*	*	*^
4C#]	2.FF#	4e]	4rc	2.An\
[4BB#X	.	8dnL	2d	.
.	.	8eJ	.	.
4BB#] 4An	.	8.f#L	.	.
.	.	16anJk	.	.
*v	*v	*	*	*
*	*	*v	*v
=130	=130	=130
4r	4an	4rc
2FF# 2D# 2F#	4g#	2G# 2B#X
.	4d#	.
*	*v	*v
=131	=131
4EE 4E	4G# 4c# 4g#
[2AAn 2E	2Gn 2c# 2gn
=132	=132
4DDn 4AA] 4Dn	4F# 4dn 4f#
2GGn 2D	2E#X 2B 2e#X
=133	=133
*^	*^
8.rc	[2.FF#	8.f#L	2F#
16D#	.	16BJk	.
4F#	.	4d#	.
4F#	.	4E 4A# 4c#	4rc
*	*	*v	*v
=134	=134	=134
4rc	4BBB 4FF#]	4D# 4B 4d#
[2c-X	2rEE	4r
.	.	4r
*v	*v	*
=135||	=135||
*k[b-e-a-d-g-c-]	*k[b-e-a-d-g-c-]
*^	*
2.c-]	4rEE	8r
.	.	8ee-
.	4A- 4f	12ee-L
.	.	12ff
.	.	12ee-J
.	4A-- 4f	8r
.	.	8cc-
=136	=136	=136
2.c-	4rEE	8ee-L
.	.	16r
.	.	16b-Jk
.	4G- 4e-	4ee-
.	4F 4e-	4a-
=137	=137	=137
2.c-	4rEE	8r
.	.	8cc-
.	4F 4dn	4.b-
.	4F 4d	.
.	.	8a-
=138	=138	=138
2.c-	4rEE	8r
.	.	8cc-
.	4F-X 4dn	4.b-
.	4F- 4d	.
.	.	8a-
=139	=139	=139
2.c-	4rEE	8r
.	.	8a-
.	4E- 4e-	12a-L
.	.	12b-
.	.	12a-J
.	4D- 4f-X	8r
.	.	8f-X
=140	=140	=140
2.c-	4rEE	8a-L
.	.	16r
.	.	16f-XJk
.	4C- 4A-	4a-
.	4C- 4A-	4e-
=141	=141	=141
*	*	*^
2.c-	4rEE	8raa	4rc
.	.	8cc-	.
.	4BB- 4Fn	4.b-	4dn
.	4BB- 4F	.	4d
.	.	8a-	.
*	*	*v	*v
=142	=142	=142
*clefG2	*	*
2.ryy	4c- 4a- 4ddn	8r
.	.	8aa-
.	4r	4.gg-
.	4r	.
.	.	8ff
*v	*v	*
*clefF4	*
=143	=143
*	*^
4EE-	8raa	4rc
.	8ff-X	.
4E- 4d- 4f-X	12ff-L	4gn
.	12gg-X	.
.	12ff-J	.
4E- 4d- 4f-	8raa	4g
.	8b-	.
*	*v	*v
=144	=144
*^	*
4AA-	4rEE	8dd-L
.	.	16r
.	.	16b--Jk
4An	2F-X 2f-X	4dd-
4B-	.	4a-X
*v	*v	*
=145	=145
*	*^
4EE-	8gnL	2.g
.	8ff-X	.
4E- 4d- 4f-X	8ee-	.
.	8ee--	.
4r	8dd-	.
.	8b-XJ	.
*	*v	*v
=146	=146
*^	*
4AA-	4rEE	8cc-L
.	.	8dd-
4Dn 4f-X	2c-	8cc-
.	.	8b-
4E- 4e-	.	8a-
.	.	8e-J
*v	*v	*
=147	=147
*	*^
4BBB-	8dnL	4rc
.	8cc-	.
2BB- 2A-	8b-	2d
.	8a-	.
.	8g-	.
.	8fnJ	.
*	*v	*v
=148	=148
4C- 4G-	8e-L
.	8g-J
4An 4e-	8an
.	4ff
4r	.
.	8ee-
=149	=149
4BB- 4G- 4e-	8ddnL
.	8dd-X
4G- 4e- 4g-	8ccn
.	8cc-X
4r	8b-
.	8g-J
=150	=150
*	*^
[4BB-	8g-L	4A- 4dn
.	8fJ	.
2EE- 2BB-]	2G- 2e-	4rc
.	.	4rc
=151	=151	=151
2GG-	8raa	4rc
.	8g-	.
.	12g-L	4B-
.	12a-	.
.	12g-J	.
4D-	8raa	4rc
.	8g-	.
=152	=152	=152
4E--	8cc-L	4c-
.	16r	.
.	[16fJk	.
4.B-	4f] 4cc-	4c-
.	4f	4rc
8A-	.	.
*	*v	*v
=153	=153
8r	4c- 4e- 4g-
8A-	.
12A-L	4c- 4e- 4a-
12B-	.
12A-J	.
8r	4c- 4e- 4b-
8G-	.
=154	=154
8c-L	4c- 4e- 4b- 4dd-
16r	.
16FJk	.
4c-	4c- 4e- 4a- 4cc-
4r	4c- 4e- 4b-
=155	=155
*^	*
2.ryy	8BB-L	4c- 4e- 4b-
.	8G-J	.
.	4F	4c- 4e- 4a-
.	4BB-	4c- 4dn 4b-
=156	=156	=156
2.ryy	4.E-	4A- 4c- 4a-
.	.	4G- 4c- 4g-
.	8EE-	.
.	8DDnL	4G- 4c-
.	8EE-J	.
=157	=157	=157
4rc	2FF-X	4E- 4A- 4e-
4rc	.	4D- 4A- 4d-X
[4D-X	4FFn	4A- 4c- 4d- 4a-
=158	=158	=158
8D-L]	2.GG-	4A- 4d- 4a-
8E-J	.	.
[4F-X	.	4G- 4B- 4g-
4F-] 4G- 4d-	.	4f-X 4b- 4gg-
*v	*v	*
=159	=159
*	*^
2C-	8raa	4rc
.	8cc-	.
.	12cc-L	4e-
.	12dd-	.
.	12cc-J	.
4G-	8raa	4rc
.	8cc-	.
=160	=160	=160
4A--	8ff-XL	4f-X
.	16r	.
.	[16b-Jk	.
4.e-	4b-] 4ff-	4rc
.	4b-	4rc
8d-	.	.
*	*v	*v
=161	=161
8r	4f-X 4a- 4cc-
8d-	.
12d-L	4f- 4a- 4dd-
12e-	.
12d-J	.
8r	4f- 4a- 4ee-
8c-	.
=162	=162
8f-XL	4f-X 4a- 4ee- 4gg-
16r	.
16B-Jk	.
4f-	4f- 4a- 4dd- 4ff-X
4r	4f- 4a- 4cc- 4ee-
=163	=163
8E-L	4f-X 4a- 4ee-
8c-J	.
8B-	4f- 4a- 4dd-
8r	.
8r	4f- 4gn 4ee-
8E-	.
=164	=164
4.A-	4d- 4f-X 4dd-
.	4c- 4f- 4cc-
8A-	.
8B-L	4c- 4f- 4a-
8A-J	.
=165	=165
*^	*^
2.A-	8rEE	4g-	4rc
.	8BB-	.	.
.	12BB-L	4g-	2c- 2dn
.	12C-	.	.
.	12BB-J	.	.
.	4rEE	4cc-	.
=166	=166	=166	=166
2.G-	8rEE	4cc-	2.c- 2.e-
.	8BB-	.	.
.	12BB-L	8g-L	.
.	12C-	.	.
.	.	8a-J	.
.	12BB-J	.	.
.	4rEE	4b-	.
=167	=167	=167	=167
2.A-	8rEE	4g-	2.c- 2.dn
.	8BB-	.	.
.	12BB-L	4en	.
.	12C-	.	.
.	12BB-J	.	.
.	4rEE	4f	.
=168	=168	=168	=168
2.G-	8rEE	4g-	2.c- 2.e-X
.	8BB-	.	.
.	12BB-L	4cc-	.
.	12C-	.	.
.	12BB-J	.	.
.	4rEE	4b-	.
=169	=169	=169	=169
4BBB-	4rEE	8raa	4rc
.	.	8a-	.
4F	2BB-	12a-L	2c- 2dn
.	.	12b-	.
.	.	12a-J	.
8G-L	.	8g-L	.
8A-J	.	8fJ	.
=170	=170	=170	=170
8.A-L	2BB-	8.fL	2c-
16G-Jk	.	16e-Jk	.
4F	.	4dn	.
4rc	4rEE	4cc- 4ccc-	4rc
=171	=171	=171	=171
4BBB-	4rEE	8raa	4rc
.	.	8a-	.
4F	2BB-	12a-L	2c- 2dn
.	.	12b-	.
.	.	12a-J	.
8G-L	.	8g-L	.
8A-J	.	8fJ	.
*	*	*v	*v
=172	=172	=172
8.A-L	2BB-	8.fL
16G-Jk	.	16e-Jk
4F	.	4dn
4rc	4rEE	4cc- 4ccc-
=173	=173	=173
*	*	*^
4BBB-	4rEE	8raa	4rc
.	.	8dd-	.
4B-	2BB- 2F-X	12dd-L	2f-X 2gn
.	.	12ee-	.
.	.	12dd-J	.
8c-L	.	8cc-L	.
8d-J	.	8b-J	.
=174	=174	=174	=174
8.d-L	2BB- 2F-X	8.b-L	2f-X
16c-Jk	.	16a-Jk	.
4B-	.	4gn	.
4BBBB- 4BBB-	4rEE	4raa	4rc
*v	*v	*	*
=175	=175	=175
4En 4c- 4en	8ff-XL 8fff-X	4aa-
.	8ee-J 8eee-	.
4Fn 4c- 4fn	4ddn 4dddn	4aa-
4BBBB- 4BBB-	4raa	4rc
=176	=176	=176
4En 4c-	8f-XL 8ff-X	4a-
.	8e-J 8ee-	.
4F 4c-	4dn 4ddn	4a-
4BBBB- 4BBB-	4raa	4rc
=177	=177	=177
4EEn 4C-	8F-XL 8f-X	4A-
.	8E-J 8e-	.
4FF 4C-	4Dn 4dn	4A-
4BBBB- 4BBB-	4raa	4rc
*	*v	*v
=178	=178
2.c-	2.r
=179	=179
2.c-	2.r
=180	=180
2.c-	2.r
=181	=181
*^	*
2.c-	4rEE	8r
.	.	8ee-
.	4A- 4f	12ee-L
.	.	12ff
.	.	12ee-J
.	4A-- 4f	8r
.	.	8cc-
=182	=182	=182
2.c-	4rEE	8ee-L
.	.	16r
.	.	16b-Jk
.	4G- 4e-	4ee-
.	4F 4e-	4a-
=183	=183	=183
2.c-	4rEE	8r
.	.	8cc-
.	4F 4dn	4.b-
.	4F 4d	.
.	.	8a-
=184	=184	=184
2.c-	4rEE	8r
.	.	8cc-
.	4F-X 4dn	4.b-
.	4F- 4d	.
.	.	8a-
=185	=185	=185
2.c-	4rEE	8r
.	.	8a-
.	4E- 4e-	12a-L
.	.	12b-
.	.	12a-J
.	4D- 4f-X	8r
.	.	8f-X
=186	=186	=186
2.c-	4rEE	8a-L
.	.	16r
.	.	16f-XJk
.	4C- 4A-	4a-
.	4C- 4A-	4e-
=187	=187	=187
2.c-	4rEE	8r
.	.	8cc-
.	4D- 4fn	4.b-
.	4D- 4f	.
.	.	8a-
*clefG2	*	*
=188	=188	=188
2.ryy	4d- 4cc- 4ff	8r
.	.	8ccc-
.	4r	4.bb-
.	4r	.
.	.	8aa-
*v	*v	*
*clefF4	*
=189	=189
*	*^
4GG-	8raa	4rc
.	8aa--	.
4G- 4f-X 4a--	12aa--L	4b-
.	12bb--	.
.	12aa--J	.
4G- 4f- 4a--	8raa	4b-
.	8dd-	.
*	*v	*v
=190	=190
*^	*
4C-	4rEE	8.ff-XL
.	.	16dd--Jk
4cn	2A-- 2a--	4ff-
4d-	.	4cc-X
*v	*v	*
=191	=191
*	*^
4GG-	8b-L	4b-
.	8aa--	.
4G- 4f-X 4a--	8gg-	4b-
.	8gg--	.
4r	8ff-X	4rc
.	8dd-XJ	.
*	*v	*v
=192	=192
*^	*
4rc	4C-	8ee-L
.	.	8dd-
[4e-	[4G-	8cc-
.	.	8b-
4A-X 4e-]	8G-L]	8a-X
.	8FnJ	8e-J
*v	*v	*
=193	=193
*	*^
4BBB-	8dnL	4rc
.	8cc-	.
2BB- 2A-	8b-	2d
.	8a-	.
.	8g-	.
.	8fJ	.
*	*v	*v
=194	=194
4C- 4G-	8e-L
.	8g-J
4An 4e-	8an
.	4ff
4r	.
.	8ee-
=195	=195
4BB- 4G- 4e-	8ddnL
.	8dd-X
4G- 4e- 4g-	8ccn
.	8cc-X
4r	8b-
.	8g-J
=196	=196
*	*^
4BBB- 4BB-	8g-L	2.A- 2.dn
.	8f	.
4r	8cc-	.
.	8b-	.
4r	8gg-	.
.	8ffJ	.
=197	=197	=197
*^	*	*
8rc	4EE-	4ff-X	8ff-L
8A-	.	.	8f-X
12A-L	4BB-	4ee-	8ee-
12B-	.	.	.
.	.	.	8a-
12A-J	.	.	.
8rc	4EE-	4ee--	8ee--
8A-	.	.	8f-J
=198	=198	=198	=198
8.f-XL	2C-	4dd-	8dd-L
.	.	.	8a-
16A-Jk	.	.	.
4f-	.	4cc-	8cc-
.	.	.	[8f-XJ
4rc	4EE-	4b-	4f-]
=199	=199	=199	=199
8rc	2Cn	4b--	8b--L
8G-	.	.	8B--
12G-L	.	4a-	8a-
12A-	.	.	.
.	.	.	8e-
12G-J	.	.	.
8rc	4EE-	4a--	8a--
8G-	.	.	8B--J
=200	=200	=200	=200
8B--L	2D-	4g-	8g-L
16r	.	.	8d-
16F-XJk	.	.	.
4B--	.	4f-X	8f-
.	.	.	8B--J
4rc	4EE-	4d-	4d-
=201	=201	=201	=201
2.BB- 2.F-X	2.EE-	4.d-	8B--L
.	.	.	8A-J
.	.	.	2Gn
.	.	8f-X	.
.	.	8e-L	.
.	.	8d-J	.
*v	*v	*	*
=202	=202	=202
4AA- 4E-	8c-L	4A-
.	8d-J	.
2AAn 2G-	8e-	2c-
.	4dd-	.
.	8cc-	.
=203	=203	=203
4BB- 4G-	8cc-L	4e-
.	8b-	.
4.BB- 4.c-	8g-	4.A- 4.dn
.	8f	.
.	8f-X	.
8EE- 8C-	8e-J	8G-
*	*v	*v
=204	=204
*^	*
8C-L	2.EE-	4G- 4e-
8BB-	.	.
8D-	.	4Fn 4e- 4fn
8AA-	.	.
8C-	.	4G- 4e- 4g-
8BB-J	.	.
=205	=205	=205
*	*	*^
8rc	4EE-	4ff-X	8ff-L
8A-	.	.	8f-X
12A-L	4BB-	4ee-	8ee-
12B-	.	.	.
.	.	.	8a-
12A-J	.	.	.
8rc	4EE-	4ee--	8ee--
8A-	.	.	8f-J
=206	=206	=206	=206
8.f-XL	2C-	4dd-	8dd-L
.	.	.	8a-
16A-Jk	.	.	.
4f-	.	4cc-	8cc-
.	.	.	[8f-XJ
4rc	4EE-	4b-	4f-]
=207	=207	=207	=207
8rc	2Cn	4b--	8b--L
8G-	.	.	8B--
12G-L	.	4a-	8a-
12A-	.	.	.
.	.	.	8e-
12G-J	.	.	.
8rc	4EE-	4a--	8a--
8G-	.	.	8B--J
=208	=208	=208	=208
8B--L	2D-	4g-	8g-L
16r	.	.	8d-
16F-XJk	.	.	.
4B--	.	4f-X	8f-
.	.	.	8B--J
4rc	4EE-	4d-	4d-
=209	=209	=209	=209
2.BB- 2.F-X	2.EE-	4.d-	8B--L
.	.	.	8A-J
.	.	.	2Gn
.	.	8f-X	.
.	.	8e-L	.
.	.	8d-J	.
*v	*v	*	*
=210	=210	=210
4AA- 4E-	8c-L	4A-
.	8d-J	.
2AAn 2G-	8e-	2c-
.	4dd-	.
.	8cc-	.
=211	=211	=211
4BB- 4G-	8cc-L	4e-
.	8b-	.
4.BB- 4.c-	8g-	4.A- 4.dn
.	8f	.
.	8f-X	.
8EE- 8C-	8e-J	8G-
*	*v	*v
=212	=212
*^	*
8C-L	2.EE-	4G- 4e-
8BB-	.	.
8D-	.	4Fn 4e- 4fn
8AA-	.	.
8C-	.	4G- 4e- 4g-
8BB-J	.	.
*v	*v	*
=213	=213
4EE- 4BB-	4G- 4e- 4g-
2CC- 2C-	2A- 2e- 2f 2a-
=214	=214
*^	*
8C-L	2.EE-	4G- 4e-
8BB-	.	.
8D-	.	4F 4e- 4f
8AA-	.	.
8C-	.	4G- 4e- 4g-
8BB-J	.	.
*v	*v	*
=215	=215
4EE- 4BB-	4G- 4e- 4g-
2CC- 2C-	2A- 2e- 2f 2a-
=216	=216
4EE- 4BB-	4G- 4e- 4g-
2CC- 2C-	2A- 2e- 2f 2a-
=217	=217
4EE- 4BB-	4B- 4e- 4g- 4b-
2AAn 2G- 2e-	2c- 2g- 2cc-
=218	=218
*^	*^
*	*^	*	*^
*	*	*^	*	*	*
8EEE-L 8EE-	4.rEE	8r	[2.EEE-/ [2.EE-	[2.c- [2.g- [2.ee-	4rc	4r
8C-	.	[8C-/	.	.	.	.
8c-	.	2C-/_	.	.	4rc	4r
8G-J	[4.G-	.	.	.	.	.
8rc	.	.	.	.	[4e-	8e-/L
8rc	.	.	.	.	.	[8cc-/J
=219	=219	=219	=219	=219	=219	=219
*	*	*	*	*	*	*^
2.ryy	2.G-]	2.C-/]	2.EEE-/] 2.EE-]	2.c-] 2.g-] 2.ee-]	2.e-]	2.cc-\]	4ee-\
.	.	.	.	.	.	.	4r
.	.	.	.	.	.	.	4r
*v	*v	*v	*v	*	*	*	*
*	*v	*v	*v	*v
=220	=220
2.c-	2.r
=221	=221
2.c-	2.r
=222	=222
2.c-	2.r
==	==
*-	*-
!!!system-decoration: {(*)}
!!!ENC: Bryan Jacob Bell
!!!END: November 2021 to April 2022
!!!PED: Günter Philipp
!!!PTL: Ausgewählte Klavierwerke (Edition Peters)
